X: 9903
T: Desert Storm
R: reel
M: 4/4
K: Bminor
B|:BABE2BE2-|E B BcdcBA|BABE2BE2|AFAd2BAF-|
FBAB E3B|BABe2ddB|AFA d2BAF|ABE2E2 FA:|
|:B2B2 e2ed-|dB~cA BEFA|~BAB~E2 BE2|ABAF DBAF|
B2B2 e2ed-|dB~cA~B2AF|DFA d2BAF|1 ABE2E2FA:|2 ABE2E4||
|:e2B2 B2cd|eBe d2BAF|d2cdFAdd-|dFFdFAdB|
e2e2 dBAF|Adc B2AAF|DFAd2BAF|1 ABE2E4:|1 ABE4E2||

